packages/smooth_app/assets/app/release_icon_light_transparent_no_border.svg

<svg width="67" height="96" viewBox="0 0 67 96" fill="none" xmlns="http://www.w3.org/2000/svg">
<path d="M0.978516 49.4651C0.978516 31.3648 15.6482 16.6951 33.7485 16.6951C51.8488 16.6951 66.5185 31.3648 66.5185 49.4651H0.978516Z" fill="#FF8C14"/>
<path d="M44.8432 30.107C45.8393 30.107 46.6468 29.2995 46.6468 28.3034C46.6468 27.3073 45.8393 26.4998 44.8432 26.4998C43.8471 26.4998 43.0396 27.3073 43.0396 28.3034C43.0396 29.2995 43.8471 30.107 44.8432 30.107Z" fill="#8C3C00"/>
<path d="M53.6205 38.167C54.6166 38.167 55.4241 37.3595 55.4241 36.3634C55.4241 35.3673 54.6166 34.5598 53.6205 34.5598C52.6244 34.5598 51.8169 35.3673 51.8169 36.3634C51.8169 37.3595 52.6244 38.167 53.6205 38.167Z" fill="#8C3C00"/>
<path d="M43.6923 40.1365C44.6884 40.1365 45.4959 39.329 45.4959 38.3329C45.4959 37.3368 44.6884 36.5293 43.6923 36.5293C42.6962 36.5293 41.8887 37.3368 41.8887 38.3329C41.8887 39.329 42.6962 40.1365 43.6923 40.1365Z" fill="#8C3C00"/>
<path d="M17.8532 78.1087L12.0303 92.0078L19.6943 95.2189L25.5654 81.2022C28.1825 81.8765 30.9227 82.2351 33.7485 82.2351C51.8167 82.2351 66.5185 67.5333 66.5185 49.4651H58.2123C58.2123 62.952 47.2408 73.9289 33.7485 73.9289C20.2562 73.9289 9.28475 62.9574 9.28475 49.4651H0.978516C0.978516 61.7692 7.7969 72.5052 17.8532 78.1087V78.1087Z" fill="black"/>
<path d="M47.2997 0.237793C40.8559 0.237793 35.2578 3.82895 32.3784 9.11668C34.5941 11.1825 36.2693 13.821 37.1363 16.8128C44.6344 15.1323 50.2646 8.50121 50.3931 0.526798C49.3923 0.33948 48.3593 0.243145 47.2997 0.243145V0.237793Z" fill="#00641E"/>
<path d="M20.8129 4.56226C19.5391 4.56226 18.2975 4.70676 17.0986 4.97436C19.1484 12.055 25.6778 17.2357 33.4221 17.2357C34.6959 17.2357 35.9375 17.0912 37.1363 16.8236C35.0865 9.74295 28.5572 4.56226 20.8129 4.56226Z" fill="#00961E"/>
</svg>

<svg width="67" height="96" fill="none" xmlns="http://www.w3.org/2000/svg"><path d="M.979 49.465c0-18.1 14.67-32.77 32.77-32.77s32.77 14.67 32.77 32.77H.978Z" fill="#FF8C14"/><path d="M44.843 30.107a1.804 1.804 0 1 0 0-3.607 1.804 1.804 0 0 0 0 3.607ZM53.62 38.167a1.804 1.804 0 1 0 0-3.607 1.804 1.804 0 0 0 0 3.607ZM43.692 40.136a1.804 1.804 0 1 0 0-3.607 1.804 1.804 0 0 0 0 3.607Z" fill="#8C3C00"/><path d="M17.853 78.109 12.03 92.008l7.664 3.21 5.871-14.016a32.749 32.749 0 0 0 8.183 1.033c18.069 0 32.77-14.702 32.77-32.77h-8.306c0 13.487-10.971 24.464-24.464 24.464-13.492 0-24.463-10.972-24.463-24.464H.979c0 12.304 6.818 23.04 16.874 28.644Z" fill="#000"/><path d="M47.3.238c-6.444 0-12.042 3.591-14.922 8.879a17.006 17.006 0 0 1 4.758 7.696C44.634 15.133 50.265 8.5 50.393.527c-1-.188-2.034-.284-3.093-.284V.238Z" fill="#00641E"/><path d="M20.813 4.562c-1.274 0-2.515.145-3.714.412 2.05 7.081 8.579 12.262 16.323 12.262 1.274 0 2.516-.145 3.714-.412-2.05-7.081-8.579-12.262-16.323-12.262Z" fill="#00961E"/></svg>
